X: 27154
T: Miss McLeod's
R: reel
M: 4/4
K: Gmajor
|G2 g2 edeg|B2 BA B2 BA|G2 g2 edeg|A2 AG A2BA|
G2 g2 edeg|B2 BA B2 Bd|e2 e2 edef|gedB A2 BA:|
G2BG dGBG|B2 BA B2 BA|G2 BG dGBG|A2 AG A2BA|
G2BG dGBG|B2 BA B2 Bd|e2 e2 edef|gedB A2 BA:|

